web/public/images/company_logos/servco.svg

<?xml version="1.0" encoding="UTF-8"?>
<svg id="Layer_2" data-name="Layer 2" xmlns="http://www.w3.org/2000/svg" viewBox="0 0 216.9799957 43.1504162">
  <defs>
    <style>
      .cls-1 {
        fill: #fff;
      }
    </style>
  </defs>
  <g id="Layer_1-2" data-name="Layer 1">
    <g id="Layer_2-2" data-name="Layer 2">
      <g id="uuid-9c39df69-8a4d-46b8-8b2b-477f072a0e1a" data-name="Layer 1-2">
        <g>
          <path class="cls-1" d="M25.7899933,11.4700012c-1.4299927-1.8499985-4.2899933-2.6800003-6.4800034-2.6800003-2.5199966,0-6,1.1100006-6,4.1800003,0,7.3899994,18.7000046,2.6199989,18.7000046,16.8399963,0,9-7.2599945,13.3899994-15.6699982,13.3399963-6.3233109-.1492844-12.2764587-3.0129166-16.3399963-7.8600006l5.7900009-7c.726532.8692245,1.5045929,1.694046,2.3300018,2.4700012,2.8799973,2.6600037,5.7699966,4.0899963,8.7300034,4.0899963s6.2100067-1.3499985,6.2100067-4.2399979c0-7.4500008-19-3.4300003-19-17C4.0600128,4.9699936,11.570015.4199944,19.530014.4199944c4.5301056-.1626129,8.9605255,1.3545532,12.4400024,4.2599983l-6.1800232,6.7900085Z"/>
          <path class="cls-1" d="M35.3300018,1.5499992h29.1999969l-6.4400024,8.2700005h-13.8099976v7.5400009h17.5800018v8.25h-17.5800018v8.2700043h19.6600037v8.2399979h-18.9199982c-1.8935852-.4651871-3.6976929-1.2388611-5.3399963-2.2900009-3.5500031-2.1900024-4.3500061-3.6500015-4.3500061-3.6500015V1.5499992Z"/>
          <path class="cls-1" d="M67.8500061,1.5600014h15.6800079c8.3300018,0,15.3200073,2.8499985,15.3200073,12.2900009,0,5.7099991-3,10.1199989-8.7700043,11.1599998l10.3399963,17.1100006h-10.7500153l-8.4799957-16.2099991h-4.3899994v16.2099991h-8.9499969V1.5600014ZM76.8000031,18.340004h5.2599945c3.2599945,0,7.5099945-.1100006,7.5099945-4.5200005,0-4.0900002-3.6699982-4.6899986-7-4.6899986h-5.8200073l.0500183,9.2099991Z"/>
          <polygon class="cls-1" points="98.5400009 1.5600293 108.75 1.5600293 118.7600021 28.1400299 118.9000015 28.1400299 129.090004 1.5600293 138.6500015 1.5600293 121.9200058 42.1300278 114.75 42.1300278 98.5400009 1.5600293"/>
          <path class="cls-1" d="M194.8600006,0c12.7999878,0,22.1199951,8.4000015,22.1199951,21.5200005s-9.3200073,21.5300026-22.1199951,21.5300026-22.1199951-8.3799973-22.1199951-21.5299988S182.0800018,0,194.8600006,0M194.8600006,34.7200012c7.7000122,0,12.7200012-5.5500031,12.7200012-13.2000008s-5-13.1899986-12.7200012-13.1899986-12.7200012,5.5400009-12.7200012,13.1899986,5,13.2000008,12.7200012,13.2000008"/>
          <path class="cls-1" d="M176.5500031,32.1600037c-3.7712097,6.7143173-10.8591614,10.8846054-18.5599976,10.9199982-12.7799988,0-22.1000061-8.3799973-22.1000061-21.5299988S145.3399963,0,157.9900055,0c6.2999878,0,11.7000122,2.1399994,14.9400024,5l-7,5.8699989c-2.3262024-1.8223419-5.2279053-2.7517433-8.1799927-2.6199989-7.3500061,0-12.4900055,5.8400002-12.4900055,13.2200012,0,7.1399994,4.8100128,13.1699982,12.3100128,13.1699982,10.7200012,0,11.519989-9.9000015,9.8399963-13l9.1399841,10.5200043Z"/>
        </g>
      </g>
    </g>
  </g>
</svg>

<svg width="217" height="44" viewBox="0 0 217 44" fill="none" xmlns="http://www.w3.org/2000/svg">
<g clip-path="url(#clip0_146_98)">
<path d="M25.79 11.47C24.36 9.62005 21.5 8.79005 19.31 8.79005C16.79 8.79005 13.31 9.90005 13.31 12.97C13.31 20.36 32.01 15.59 32.01 29.81C32.01 38.81 24.75 43.2 16.34 43.15C10.0167 43.0008 4.06354 40.1371 0 35.29L5.79 28.29C6.51653 29.1593 7.29459 29.9841 8.12 30.76C11 33.42 13.89 34.85 16.85 34.85C19.81 34.85 23.06 33.5 23.06 30.61C23.06 23.16 4.06001 27.18 4.06001 13.61C4.06001 4.97004 11.57 0.420043 19.53 0.420043C24.0601 0.25743 28.4905 1.7746 31.97 4.68004L25.79 11.47Z" fill="#3055A6" style="fill:#3055A6;fill:color(display-p3 0.1882 0.3333 0.6510);fill-opacity:1;"/>
<path d="M35.3301 1.55005H64.5301L58.0901 9.82005H44.2801V17.3601H61.8601V25.6101H44.2801V33.8801H63.9401V42.1201H45.0201C43.1265 41.6549 41.3224 40.8812 39.6801 39.8301C36.1301 37.64 35.3301 36.18 35.3301 36.18V1.55005Z" fill="#3055A6" style="fill:#3055A6;fill:color(display-p3 0.1882 0.3333 0.6510);fill-opacity:1;"/>
<path d="M67.8501 1.56006H83.5301C91.8601 1.56006 98.8501 4.41006 98.8501 13.8501C98.8501 19.5601 95.8501 23.9701 90.0801 25.0101L100.42 42.1201H89.6701L81.1901 25.9101H76.8001V42.1201H67.8501V1.56006ZM76.8001 18.3401H82.0601C85.3201 18.3401 89.5701 18.2301 89.5701 13.8201C89.5701 9.73006 85.9001 9.13006 82.5701 9.13006H76.7501L76.8001 18.3401Z" fill="#3055A6" style="fill:#3055A6;fill:color(display-p3 0.1882 0.3333 0.6510);fill-opacity:1;"/>
<path d="M98.54 1.56006H108.75L118.76 28.1401H118.9L129.09 1.56006H138.65L121.92 42.1301H114.75L98.54 1.56006Z" fill="#3055A6" style="fill:#3055A6;fill:color(display-p3 0.1882 0.3333 0.6510);fill-opacity:1;"/>
<path d="M194.86 0C207.66 0 216.98 8.4 216.98 21.52C216.98 34.64 207.66 43.05 194.86 43.05C182.06 43.05 172.74 34.67 172.74 21.52C172.74 8.37 182.08 0 194.86 0ZM194.86 34.72C202.56 34.72 207.58 29.17 207.58 21.52C207.58 13.87 202.58 8.33 194.86 8.33C187.14 8.33 182.14 13.87 182.14 21.52C182.14 29.17 187.14 34.72 194.86 34.72Z" fill="#3055A6" style="fill:#3055A6;fill:color(display-p3 0.1882 0.3333 0.6510);fill-opacity:1;"/>
<path d="M176.55 32.16C172.779 38.8743 165.691 43.0446 157.99 43.08C145.21 43.08 135.89 34.7 135.89 21.55C135.89 8.4 145.34 0 157.99 0C164.29 0 169.69 2.14 172.93 5L165.93 10.87C163.604 9.04766 160.702 8.11826 157.75 8.25C150.4 8.25 145.26 14.09 145.26 21.47C145.26 28.61 150.07 34.64 157.57 34.64C168.29 34.64 169.09 24.74 167.41 21.64L176.55 32.16Z" fill="#3055A6" style="fill:#3055A6;fill:color(display-p3 0.1882 0.3333 0.6510);fill-opacity:1;"/>
</g>
<defs>
<clipPath id="clip0_146_98">
<rect width="216.98" height="43.1504" fill="white" style="fill:white;fill-opacity:1;"/>
</clipPath>
</defs>
</svg>
